svg/section-lex.svg

<svg xmlns="http://www.w3.org/2000/svg" width="100" height="100" viewBox="0 0 100 100"><path d="M.5 46.852v-16.016l20.974 31.813 58.991-48.269 18.035 23.876v14.545l-19.578-25.822-59.505 48.599-18.917-28.726zm.331 14.511v-2.461h.992l1.58 2.461h-2.572zm0 6.502v-2.461h5.252l1.543 2.461h-6.795zm0 4.04h9.477l1.58 2.498h-11.057v-2.498zm0 6.502h13.738l1.542 2.497h-15.28v-2.497zm0 6.465h97.632v2.534h-97.632v-2.534zm6.795-53.007v-19.174h5.29v14.803h8.081v4.371h-13.371zm14.142 49.039l3.122-2.497h73.573v2.497h-76.695zm.844-49.039v-19.174h13.848v4.445h-8.375v2.864h5.914v4.224h-5.914v3.269h8.853v4.371h-14.326zm7.2 42.538l2.938-2.498h65.712v2.498h-68.65zm7.86-6.538l3.122-2.461h57.668v2.461h-60.79zm.184-36l.11-.22 5.767-9.917-5.437-9.036h6.098l.037.037 2.792 4.739 2.608-4.775h5.436l-5.252 9.073 5.951 10.101h-5.914l-.037-.073-3.379-5.62-2.975 5.693h-5.805zm7.897 29.462l2.938-2.425h49.771v2.425h-52.709zm7.897-6.502l3.086-2.391h34.344l1.837 2.391h-39.267zm7.825-6.468l3.159-2.535h21.451l1.873 2.535h-26.483zm8.081-6.464l2.938-2.571h8.742l2.021 2.571h-13.701z"/></svg>

<?xml version="1.0" encoding="utf-8"?>
<!-- Generator: Adobe Illustrator 13.0.0, SVG Export Plug-In . SVG Version: 6.00 Build 14948)  -->
<!DOCTYPE svg PUBLIC "-//W3C//DTD SVG 1.1//EN" "http://www.w3.org/Graphics/SVG/1.1/DTD/svg11.dtd">
<svg version="1.1" id="Layer_1" xmlns="http://www.w3.org/2000/svg" xmlns:xlink="http://www.w3.org/1999/xlink" x="0px" y="0px"
	 width="100px" height="100px" viewBox="0 0 100 100" enable-background="new 0 0 100 100" xml:space="preserve">
<g>
	<path d="M0.5,46.852V30.836l20.974,31.813l58.991-48.269L98.5,38.256v14.545L78.922,26.979L19.417,75.578L0.5,46.852z
		 M0.831,61.363v-2.461h0.992l1.58,2.461H0.831z M0.831,67.865v-2.461h5.252l1.543,2.461H0.831z M0.831,71.905h9.477l1.58,2.498
		H0.831V71.905z M0.831,78.407h13.738l1.542,2.497H0.831V78.407z M0.831,84.872h97.632v2.534H0.831V84.872z M7.626,31.865V12.691
		h5.29v14.803h8.081v4.371H7.626z M21.768,80.904l3.122-2.497h73.573v2.497H21.768z M22.612,31.865V12.691H36.46v4.445h-8.375V20
		h5.914v4.224h-5.914v3.269h8.853v4.371H22.612z M29.812,74.403l2.938-2.498h65.712v2.498H29.812z M37.672,67.865l3.122-2.461
		h57.668v2.461H37.672z M37.856,31.865l0.11-0.22l5.767-9.917l-5.437-9.036h6.098l0.037,0.037l2.792,4.739l2.608-4.775h5.436
		l-5.252,9.073l5.951,10.101h-5.914l-0.037-0.073l-3.379-5.62l-2.975,5.693H37.856z M45.753,61.327l2.938-2.425h49.771v2.425H45.753
		z M53.65,54.825l3.086-2.391H91.08l1.837,2.391H53.65z M61.475,48.357l3.159-2.535h21.451l1.873,2.535H61.475z M69.556,41.893
		l2.938-2.571h8.742l2.021,2.571H69.556z"/>
</g>
</svg>
